!!!OTL: IM WALDE MUSS ICH LEBEN
!!!ARE: Europa, Mitteleuropa, Deutschland
!!!SCT: B0176
!!!YEM: Copyright 1995, estate of Helmut Schaffrath.
**kern
*ICvox
*Ivox
*M6/8
*k[b-e-]
*B-:
{8f
=1
4b-
8b-
8b-
8a
8b-
=2
4a
8g
4f}
{8f
=3
4b-
8b-
8cc
8b-
8cc
=4
4.dd
4r}
{16b-
16dd
=5
4ff
8ff
8ff
8gg
8ff
=6
4ff
8ee-
4cc}
{8ff
=7
4dd
8dd
8cc
8b-
8cc
=8
4.b-}
{4.ff
=9
4dd
8dd
8.cc
16b-
8cc
=10
4.b-
4r}
==
!!!AGN: Natur - Lied, Wald
!!!ONB: ESAC (Essen Associative Code) Database: BOEHME
!!!AMT: compound duple
!!!AIN: vox
!!!EED: Helmut Schaffrath
!!!EEV: 1.0
*-
